src/assets/icons/weeks,fancy,23.svg

<svg width="48" height="48" viewBox="0 0 48 48" fill="none" xmlns="http://www.w3.org/2000/svg">
<rect opacity="0.2" x="4" y="6" width="40" height="40" rx="4" fill="black"/>
<path d="M7.60369 41H22.1207V37.4801H13.5696V37.3409L16.5426 34.4276C20.7287 30.6094 21.8523 28.7003 21.8523 26.3835C21.8523 22.8537 18.9688 20.358 14.6037 20.358C10.3281 20.358 7.39489 22.9134 7.40483 26.9105H11.4915C11.4815 24.9616 12.7145 23.7685 14.5739 23.7685C16.3636 23.7685 17.696 24.8821 17.696 26.6719C17.696 28.2926 16.7017 29.4062 14.8523 31.1861L7.60369 37.8977V41ZM32.7674 41.2784C37.3413 41.2784 40.6126 38.7628 40.6026 35.2827C40.6126 32.7472 39.0018 30.9375 36.0089 30.5597V30.4006C38.2859 29.9929 39.8569 28.3821 39.8469 26.0952C39.8569 22.8835 37.043 20.358 32.8271 20.358C28.6509 20.358 25.5089 22.804 25.4492 26.3239H29.5756C29.6254 24.7727 31.0472 23.7685 32.8072 23.7685C34.5472 23.7685 35.7106 24.8224 35.7006 26.3537C35.7106 27.9545 34.3484 29.0384 32.3896 29.0384H30.4904V32.2003H32.3896C34.6964 32.2003 36.1381 33.3537 36.1282 34.9943C36.1381 36.6151 34.7461 37.7287 32.7773 37.7287C30.8782 37.7287 29.4563 36.7344 29.3768 35.2429H25.0415C25.1112 38.8026 28.293 41.2784 32.7674 41.2784Z" fill="black"/>
<g opacity="0.4">
<path d="M10 4C10 2.89543 10.8954 2 12 2C13.1046 2 14 2.89543 14 4V8C14 9.10457 13.1046 10 12 10C10.8954 10 10 9.10457 10 8V4Z" fill="black"/>
<path d="M34 4C34 2.89543 34.8954 2 36 2C37.1046 2 38 2.89543 38 4V8C38 9.10457 37.1046 10 36 10C34.8954 10 34 9.10457 34 8V4Z" fill="black"/>
</g>
<path fill-rule="evenodd" clip-rule="evenodd" d="M10 6.00869C7.52043 6.04456 6.11466 6.22849 5.17157 7.17157C4 8.34315 4 10.2288 4 14V16H44V14C44 10.2288 44 8.34315 42.8284 7.17157C41.8853 6.22849 40.4796 6.04456 38 6.00869V8C38 9.10457 37.1046 10 36 10C34.8954 10 34 9.10457 34 8V6H14V8C14 9.10457 13.1046 10 12 10C10.8954 10 10 9.10457 10 8V6.00869Z" fill="black"/>
</svg>

<svg xmlns="http://www.w3.org/2000/svg" width="48" height="48" fill="none" viewBox="0 0 48 48">
  <rect width="40" height="40" x="4" y="6" fill="#000" opacity=".2" rx="4"/>
  <path fill="#000" d="M7.604 41H22.12v-3.52H13.57v-.14l2.973-2.912c4.186-3.819 5.31-5.728 5.31-8.044 0-3.53-2.884-6.026-7.25-6.026-4.275 0-7.208 2.555-7.198 6.552h4.087c-.01-1.948 1.222-3.142 3.082-3.142 1.79 0 3.122 1.114 3.122 2.904 0 1.62-.994 2.734-2.844 4.514l-7.248 6.712V41zm25.163.278c4.574 0 7.846-2.515 7.836-5.995.01-2.536-1.601-4.346-4.594-4.723v-.16c2.277-.407 3.848-2.018 3.838-4.305.01-3.211-2.804-5.737-7.02-5.737-4.176 0-7.318 2.446-7.378 5.966h4.127c.05-1.551 1.471-2.556 3.231-2.556 1.74 0 2.904 1.054 2.894 2.586.01 1.6-1.353 2.684-3.311 2.684h-1.9V32.2h1.9c2.306 0 3.748 1.154 3.738 2.794.01 1.621-1.382 2.735-3.35 2.735-1.9 0-3.322-.995-3.401-2.486h-4.335c.07 3.56 3.251 6.035 7.725 6.035z"/>
  <g opacity=".4">
    <path fill="#000" d="M10 4a2 2 0 114 0v4a2 2 0 11-4 0V4zM34 4a2 2 0 114 0v4a2 2 0 11-4 0V4z"/>
  </g>
  <path fill="#000" fill-rule="evenodd" d="M10 6.009c-2.48.036-3.885.22-4.828 1.163C4 8.343 4 10.229 4 14v2h40v-2c0-3.771 0-5.657-1.172-6.828-.943-.944-2.348-1.127-4.828-1.163V8a2 2 0 11-4 0V6H14v2a2 2 0 11-4 0V6.009z" clip-rule="evenodd"/>
</svg>
